icons/tumblr-icon.svg

<?xml version="1.0" encoding="UTF-8" standalone="no"?>
<svg width="256px" height="446px" viewBox="0 0 256 446" version="1.1" xmlns="http://www.w3.org/2000/svg" xmlns:xlink="http://www.w3.org/1999/xlink" preserveAspectRatio="xMidYMid">
    <g>
        <path d="M234.575538,355.79965 C226.295877,359.749785 210.450702,363.186626 198.622614,363.499066 C162.982129,364.458703 156.063813,338.459226 155.751373,319.578919 L155.751373,180.922481 L245.198501,180.922481 L245.198501,113.502378 L156.08613,113.502378 L156.08613,0.042 L90.8307907,0.042 C89.7595676,0.042 87.8849272,0.979320199 87.6394386,3.36725499 C83.8232063,38.0927366 67.5540058,99.0408667 0,123.388875 L0,180.922481 L45.0806381,180.922481 L45.0806381,326.474918 C45.0806381,376.286791 81.8369802,447.076783 178.871938,445.425314 C211.588876,444.867386 247.94351,431.14234 256,419.336569 L234.575538,355.79965" fill="#303D4D"></path>
    </g>
</svg>

<svg xmlns="http://www.w3.org/2000/svg" viewBox="0 0 256 445.412">
  <path fill="#303d4d" d="M234.576 355.758c-8.28 3.95-24.125 7.387-35.953 7.7-35.64.959-42.56-25.04-42.872-43.921V180.88h89.447v-67.42h-89.112V0H90.831c-1.071 0-2.946.937-3.192 3.325C83.823 38.051 67.554 99 0 123.347v57.533h45.08v145.553c0 49.812 36.757 120.602 133.792 118.95 32.717-.558 69.072-14.283 77.128-26.088l-21.424-63.537"/>
</svg>
